public/images/experiences/fpt-logo.svg

<svg xmlns="http://www.w3.org/2000/svg" width="1000" height="1000" fill="none" viewBox="0 0 1000 1000"><path fill="#0e69af" d="M913.202 541.388a35.06 35.06 0 0 1 21.66-32.335 35.07 35.07 0 0 1 38.173 7.584 35.06 35.06 0 0 1 7.655 38.159 35.06 35.06 0 0 1-32.294 21.721 35 35 0 0 1-34.997-35.129m61.59 0a26.26 26.26 0 0 0-17.468-22.737 26.265 26.265 0 1 0-9.125 51.037 27 27 0 0 0 19.091-8.62 27 27 0 0 0 7.174-19.68m-40.054-19.698h14.774c9.521 0 14.708 3.283 14.708 11.687a9.91 9.91 0 0 1-6.306 9.984 9.9 9.9 0 0 1-4.134.654l10.637 17.4h-7.551l-10.243-17.138h-4.465v17.138h-7.42zm7.551 16.94h6.567c4.333 0 8.142-.656 8.142-5.909s-4.268-5.45-8.077-5.45h-6.566z"/><path fill="#0db04b" d="M800.196 169.479a123.24 123.24 0 0 0-114.448 81.945c-.919 2.43-4.071 12.542-4.071 12.542l-72.228 312.549h165.796c56.994 0 105.058-41.104 118.847-96.457l71.703-310.645z"/><path fill="#f27226" d="M524.155 79a121.73 121.73 0 0 0-73.353 24.846 121.73 121.73 0 0 0-43.524 64.06 116 116 0 0 0-2.692 11.688L291.779 667h165.927a121.87 121.87 0 0 0 117.797-92.452L690.017 79z"/><path fill="#0e69af" d="M206.419 169.483a123.58 123.58 0 0 0-116.09 87.199 52 52 0 0 0-1.05 3.414l-2.758 10.9L16 576.52h169.735a119.505 119.505 0 0 0 111.231-80.83l6.566-29.088 68.682-297.119z"/><path fill="#fff" d="M175.492 270.996h-2.561a51.8 51.8 0 0 0-33.224 12.541 55.4 55.4 0 0 0-18.648 26.068L83.041 474.744h2.166a52 52 0 0 0 33.488-12.673 53.84 53.84 0 0 0 19.698-30.532l8.339-35.851h75.511a53.4 53.4 0 0 0 33.488-12.739 54.1 54.1 0 0 0 19.698-30.401l.46-2.167H157.107l7.879-34.078h102.761a51.94 51.94 0 0 0 33.225-12.476 55.16 55.16 0 0 0 19.698-30.401l.525-2.167zm419.447 9.977a34.47 34.47 0 0 0-25.279-9.849H424.613l-46.817 203.551h2.167a52 52 0 0 0 33.488-12.672 53.85 53.85 0 0 0 19.698-30.533l8.405-36.245h100.462a47.35 47.35 0 0 0 32.831-9.587 63.3 63.3 0 0 0 20.289-33.29l8.799-37.69c.648-3.045 1-6.146 1.051-9.258a32.83 32.83 0 0 0-10.047-24.427m-45.24 69.339h-97.771l7.88-34.144h97.836zm340.324-69.208a33.9 33.9 0 0 0-25.28-9.849H712.014v1.445a49.5 49.5 0 0 0-1.116 8.93 33.62 33.62 0 0 0 9.455 24.886 34.03 34.03 0 0 0 25.28 9.849h32.043l-36.508 158.376h2.167a52.08 52.08 0 0 0 33.553-12.673 54.17 54.17 0 0 0 19.699-30.533l26.724-115.17h75.511v-1.445a43.4 43.4 0 0 0 1.05-9.258 32.82 32.82 0 0 0-9.849-24.558"/><path fill="#1068b0" d="M180.03 909.349a56.58 56.58 0 0 1-38.305 12.379 81.4 81.4 0 0 1-38.435-8.101l8.296-21.195a60.3 60.3 0 0 0 29.556 7.713 32 32 0 0 0 20.74-6.481 20.28 20.28 0 0 0 7.907-16.917q0-14.519-24.759-25.407a100 100 0 0 1-26.768-16.268 38.51 38.51 0 0 1-12.963-29.491 40.45 40.45 0 0 1 13.482-31.888 51.85 51.85 0 0 1 35.323-11.537 66.2 66.2 0 0 1 34.806 8.166l-7.648 19.445a53.6 53.6 0 0 0-26.315-7.065 28.13 28.13 0 0 0-18.602 5.833 19.44 19.44 0 0 0-7.065 15.815q0 14.128 25.926 25.926a99.9 99.9 0 0 1 25.926 15.814 38.9 38.9 0 0 1 12.963 29.555 42.33 42.33 0 0 1-14.065 33.704m114.657-4.923a49.64 49.64 0 0 1-37.658 17.292 49.64 49.64 0 0 1-37.657-17.292 66.3 66.3 0 0 1-12.962-42.778 66.3 66.3 0 0 1 12.962-42.777 49.978 49.978 0 0 1 75.315 0 66.3 66.3 0 0 1 12.962 42.777 66.3 66.3 0 0 1-12.962 42.778m-17.436-72.916a24.043 24.043 0 0 0-40.573 0 55.55 55.55 0 0 0-6.871 29.879 55.7 55.7 0 0 0 6.871 29.944 23.78 23.78 0 0 0 20.287 11.367 23.78 23.78 0 0 0 20.286-11.367 55.67 55.67 0 0 0 6.871-29.944 55.55 55.55 0 0 0-6.871-29.879m100.396-61.644q-22.88 0-22.88 19.898v14.324h23.981v17.565h-23.722v97.74h-22.879v-97.74H316.98v-17.565h15.167v-14.324a36.55 36.55 0 0 1 11.991-29.296 43.82 43.82 0 0 1 29.684-9.398 66 66 0 0 1 7.324.389v18.407zm68.638 148.493a34.2 34.2 0 0 1-14.519 2.592q-31.694 0-31.694-33.833v-65.462h-15.555v-17.565h15.879v-26.703l22.944-7.065v33.768h23.269v17.565H423.34v64.296c0 9.657 5.121 14.518 15.361 14.518 2.71.043 5.4-.464 7.908-1.491zm137.342 1.036h-24.176l-20.546-73.175a130 130 0 0 1-3.435-16.657h-.389a155 155 0 0 1-3.694 16.657l-20.482 73.175H486.73l-34.481-115.304h23.333l19.833 76.157a122 122 0 0 1 3.241 18.147h.453c1.102-6.481 2.398-12.962 3.824-18.147l20.935-76.157h22.037l21 76.157c1.426 5.379 2.657 11.472 3.824 18.147h.454a114 114 0 0 1 3.175-18.147l20.482-76.157h23.333zm132.546-5.77a88.9 88.9 0 0 1-41.481 8.102q-49.777 0-49.843-36.167a32.02 32.02 0 0 1 21.454-31.175 142.2 142.2 0 0 1 47.638-8.556v-7.324q0-19.444-24.37-19.444a73 73 0 0 0-31.824 7.065l-6.027-16.074a98.9 98.9 0 0 1 40.185-8.102q44.332 0 44.268 38.889zm-22.232-52.24a127.3 127.3 0 0 0-32.407 4.731 19.44 19.44 0 0 0-14.842 19.055q0 19.445 27.157 19.445a49.4 49.4 0 0 0 19.898-2.982zm95.859-39.339a50 50 0 0 0-11.796-1.232 46.5 46.5 0 0 0-18.148 2.982v95.601h-23.333V809.86a115 115 0 0 1 44.722-8.101 73.4 73.4 0 0 1 12.963.842zm111.157 39.147-76.545 10.695q3.63 31.24 35.323 31.24a65.8 65.8 0 0 0 31.824-7.065l6.87 17.565a87.7 87.7 0 0 1-40.249 8.102 54.12 54.12 0 0 1-41.87-16.334 61.7 61.7 0 0 1-14.778-43.814 64.8 64.8 0 0 1 13.676-43.166 47.25 47.25 0 0 1 38.305-16.722 45.37 45.37 0 0 1 35.065 13.676 52.43 52.43 0 0 1 12.638 37.008c0 3.889-.064 6.806-.259 8.815m-22.231-12.379q0-29.944-25.926-29.944a25.92 25.92 0 0 0-21.583 9.851 42.9 42.9 0 0 0-8.555 27.806z"/></svg>

<svg width="1000" height="1000" viewBox="0 0 1000 1000" fill="none" xmlns="http://www.w3.org/2000/svg">
<path d="M913.202 541.388C913.215 534.462 915.279 527.694 919.134 521.94C922.989 516.185 928.462 511.701 934.862 509.053C941.263 506.406 948.304 505.713 955.098 507.063C961.891 508.413 968.133 511.744 973.035 516.637C977.938 521.531 981.281 527.766 982.643 534.557C984.006 541.348 983.326 548.391 980.69 554.796C978.055 561.202 973.581 566.683 967.834 570.549C962.086 574.414 955.323 576.491 948.396 576.517C943.789 576.517 939.228 575.607 934.973 573.84C930.718 572.073 926.854 569.484 923.603 566.22C920.351 562.956 917.776 559.083 916.025 554.821C914.274 550.56 913.381 545.995 913.399 541.388M974.989 541.388C974.594 536.313 972.733 531.462 969.631 527.425C966.53 523.389 962.323 520.34 957.521 518.651C952.719 516.961 947.53 516.704 942.584 517.909C937.638 519.115 933.149 521.731 929.664 525.441C926.178 529.151 923.845 533.793 922.949 538.804C922.053 543.815 922.633 548.979 924.618 553.666C926.602 558.354 929.906 562.364 934.128 565.208C938.349 568.053 943.306 569.609 948.396 569.688C951.992 569.596 955.534 568.786 958.812 567.306C962.091 565.826 965.04 563.705 967.487 561.068C969.934 558.431 971.829 555.332 973.061 551.952C974.293 548.573 974.837 544.981 974.661 541.388M934.607 521.69H949.381C958.902 521.69 964.089 524.973 964.089 533.377C964.194 534.784 963.998 536.197 963.513 537.522C963.028 538.847 962.266 540.053 961.278 541.06C960.29 542.067 959.098 542.851 957.783 543.361C956.467 543.87 955.058 544.093 953.649 544.015L964.286 561.415H956.735L946.492 544.277H942.027V561.415H934.607V521.69ZM942.158 538.63H948.725C953.058 538.63 956.867 537.974 956.867 532.721C956.867 527.468 952.599 527.271 948.79 527.271H942.224L942.158 538.63Z" fill="#0E69AF"/>
<path d="M800.196 169.479C775.035 169.821 750.582 177.857 730.123 192.506C709.663 207.155 694.178 227.715 685.748 251.424C684.829 253.854 681.677 263.966 681.677 263.966L609.449 576.515H775.245C832.239 576.515 880.303 535.411 894.092 480.058L965.795 169.413L800.196 169.479Z" fill="#0DB04B"/>
<path d="M524.155 79C497.651 79.0759 471.896 87.7993 450.802 103.846C429.707 119.892 414.425 142.384 407.278 167.906C406.179 171.753 405.281 175.654 404.586 179.594L291.779 667H457.706C484.829 666.896 511.142 657.747 532.479 641.001C553.815 624.255 568.956 600.87 575.503 574.548L690.017 79H524.155Z" fill="#F27226"/>
<path d="M206.419 169.483C180.343 169.909 155.07 178.573 134.217 194.236C113.365 209.898 98.0025 231.757 90.329 256.682C89.935 257.798 89.6067 258.915 89.2784 260.096L86.5206 270.996L16 576.52H185.735C210.342 576.139 234.231 568.172 254.14 553.704C274.048 539.237 289.005 518.977 296.966 495.69L303.532 466.602L372.214 169.483H206.419Z" fill="#0E69AF"/>
<path d="M175.492 270.996H172.931C160.725 271.132 148.958 275.573 139.707 283.537C131.059 290.2 124.571 299.269 121.059 309.605L83.0405 474.744H85.2074C97.518 474.617 109.384 470.126 118.695 462.071C128.601 454.484 135.563 443.691 138.393 431.539L146.732 395.688H222.243C234.54 395.426 246.369 390.926 255.731 382.949C265.595 375.38 272.551 364.644 275.429 352.548L275.889 350.381H157.107L164.986 316.303H267.747C279.943 316.174 291.705 311.758 300.972 303.827C310.773 296.2 317.714 285.488 320.67 273.426L321.195 271.259L175.492 270.996Z" fill="white"/>
<path d="M594.939 280.973C591.611 277.707 587.654 275.15 583.309 273.457C578.964 271.764 574.321 270.971 569.66 271.124H424.613L377.796 474.675H379.963C392.274 474.548 404.14 470.058 413.451 462.003C423.356 454.415 430.319 443.623 433.149 431.47L441.554 395.225H542.016C553.772 396.232 565.48 392.813 574.847 385.638C584.944 376.952 592.044 365.303 595.136 352.348L603.935 314.658C604.583 311.613 604.935 308.512 604.986 305.4C605.094 300.854 604.256 296.336 602.527 292.132C600.798 287.927 598.214 284.127 594.939 280.973ZM549.699 350.312H451.928L459.808 316.168H557.644L549.699 350.312Z" fill="white"/>
<path d="M890.023 281.104C886.715 277.81 882.762 275.234 878.412 273.539C874.062 271.844 869.408 271.067 864.743 271.255H712.014V272.7C711.372 275.636 710.998 278.625 710.898 281.63C710.697 286.203 711.432 290.769 713.058 295.048C714.684 299.328 717.166 303.23 720.353 306.516C723.666 309.804 727.62 312.375 731.969 314.07C736.318 315.764 740.969 316.545 745.633 316.365H777.676L741.168 474.741H743.335C755.667 474.623 767.558 470.132 776.888 462.068C786.774 454.462 793.731 443.677 796.587 431.535L823.311 316.365H898.822V314.92C899.503 311.881 899.855 308.777 899.872 305.662C900.024 301.109 899.227 296.575 897.531 292.347C895.836 288.119 893.279 284.291 890.023 281.104Z" fill="white"/>
<path d="M180.03 909.349C169.211 918.031 155.579 922.437 141.725 921.728C128.444 922.205 115.248 919.424 103.29 913.627L111.586 892.432C120.612 897.498 130.791 900.154 141.142 900.145C148.599 900.469 155.935 898.176 161.882 893.664C164.459 891.684 166.522 889.113 167.898 886.169C169.274 883.226 169.923 879.994 169.789 876.747C169.789 867.068 161.536 858.599 145.03 851.34C135.309 847.357 126.275 841.867 118.262 835.072C114.1 831.384 110.786 826.838 108.548 821.747C106.31 816.657 105.202 811.141 105.299 805.581C105.046 799.6 106.124 793.636 108.455 788.122C110.787 782.607 114.313 777.679 118.781 773.693C128.725 765.615 141.309 761.505 154.104 762.156C166.236 761.633 178.277 764.459 188.91 770.322L181.262 789.767C173.245 785.184 164.181 782.751 154.947 782.702C148.249 782.367 141.652 784.436 136.345 788.535C134.026 790.446 132.18 792.868 130.955 795.612C129.729 798.356 129.156 801.347 129.28 804.35C129.28 813.769 137.922 822.411 155.206 830.276C164.604 834.195 173.347 839.528 181.132 846.09C185.282 849.801 188.588 854.361 190.824 859.46C193.06 864.559 194.176 870.078 194.095 875.645C194.415 881.957 193.318 888.26 190.885 894.092C188.451 899.924 184.742 905.137 180.03 909.349Z" fill="#1068B0"/>
<path d="M294.687 904.426C290.026 909.85 284.248 914.204 277.748 917.188C271.249 920.173 264.181 921.718 257.029 921.718C249.878 921.718 242.81 920.173 236.311 917.188C229.811 914.204 224.033 909.85 219.372 904.426C210.231 892.097 205.649 876.978 206.41 861.648C205.649 846.318 210.231 831.2 219.372 818.871C224.063 813.494 229.851 809.184 236.346 806.23C242.842 803.277 249.894 801.749 257.029 801.749C264.165 801.749 271.217 803.277 277.713 806.23C284.208 809.184 289.996 813.494 294.687 818.871C303.828 831.2 308.41 846.318 307.649 861.648C308.41 876.978 303.828 892.097 294.687 904.426ZM277.251 831.51C275.08 828.097 272.082 825.287 268.536 823.34C264.99 821.394 261.01 820.373 256.965 820.373C252.919 820.373 248.939 821.394 245.393 823.34C241.847 825.287 238.85 828.097 236.678 831.51C231.63 840.628 229.249 850.982 229.807 861.389C229.244 871.817 231.625 882.194 236.678 891.333C238.804 894.806 241.785 897.674 245.337 899.664C248.89 901.655 252.893 902.7 256.965 902.7C261.036 902.7 265.04 901.655 268.592 899.664C272.144 897.674 275.126 894.806 277.251 891.333C282.305 882.194 284.685 871.817 284.122 861.389C284.68 850.982 282.299 840.628 277.251 831.51Z" fill="#1068B0"/>
<path d="M377.647 769.866C362.394 769.866 354.767 776.499 354.767 789.764V804.088H378.748V821.653H355.026V919.393H332.147V821.653H316.98V804.088H332.147V789.764C331.822 784.295 332.731 778.822 334.807 773.751C336.882 768.68 340.071 764.141 344.138 760.468C352.548 753.807 363.111 750.463 373.822 751.07C376.269 751.064 378.714 751.194 381.146 751.459V769.866H377.647Z" fill="#1068B0"/>
<path d="M446.285 918.359C441.691 920.268 436.736 921.153 431.766 920.951C410.637 920.951 400.072 909.674 400.072 887.118V821.656H384.517V804.091H400.396V777.388L423.34 770.323V804.091H446.609V821.656H423.34V885.952C423.34 895.609 428.461 900.47 438.701 900.47C441.411 900.513 444.101 900.006 446.609 898.979L446.285 918.359Z" fill="#1068B0"/>
<path d="M583.627 919.395H559.451L538.905 846.22C537.398 840.749 536.25 835.184 535.47 829.563H535.081C534.156 835.179 532.923 840.74 531.387 846.22L510.905 919.395H486.73L452.249 804.091H475.582L495.415 880.248C496.952 886.206 498.035 892.273 498.656 898.395H499.109C500.211 891.914 501.507 885.433 502.933 880.248L523.868 804.091H545.905L566.905 880.248C568.331 885.627 569.562 891.72 570.729 898.395H571.183C571.751 892.271 572.813 886.202 574.358 880.248L594.84 804.091H618.173L583.627 919.395Z" fill="#1068B0"/>
<path d="M716.173 913.625C703.198 919.62 688.969 922.399 674.692 921.727C641.507 921.727 624.893 909.671 624.849 885.56C624.648 878.759 626.62 872.07 630.477 866.464C634.335 860.858 639.878 856.627 646.303 854.385C661.577 848.832 677.69 845.938 693.941 845.829V838.505C693.941 825.542 685.818 819.061 669.571 819.061C658.566 818.986 647.687 821.402 637.747 826.126L631.72 810.052C644.402 804.575 658.091 801.815 671.905 801.95C701.46 801.95 716.216 814.913 716.173 840.839V913.625ZM693.941 861.385C682.98 861.56 672.088 863.15 661.534 866.116C657.274 867.154 653.49 869.601 650.795 873.06C648.101 876.519 646.655 880.787 646.692 885.171C646.692 898.134 655.744 904.616 673.849 904.616C680.616 904.998 687.389 903.983 693.747 901.634L693.941 861.385Z" fill="#1068B0"/>
<path d="M789.8 822.046C785.931 821.168 781.971 820.755 778.004 820.814C771.817 820.591 765.647 821.604 759.856 823.796V919.397H736.523V809.86C750.743 804.211 765.947 801.457 781.245 801.759C785.582 801.656 789.92 801.938 794.208 802.601L789.8 822.046Z" fill="#1068B0"/>
<path d="M900.957 861.193L824.412 871.888C826.832 892.714 838.606 903.128 859.735 903.128C870.768 903.48 881.712 901.051 891.559 896.063L898.429 913.628C885.843 919.475 872.049 922.252 858.18 921.73C850.438 922.166 842.693 920.933 835.469 918.115C828.245 915.297 821.712 910.959 816.31 905.396C805.891 893.259 800.593 877.55 801.532 861.582C800.753 846.017 805.608 830.692 815.208 818.416C819.883 812.877 825.769 808.489 832.411 805.589C839.053 802.689 846.274 801.357 853.513 801.694C859.996 801.331 866.481 802.365 872.531 804.724C878.58 807.083 884.052 810.714 888.578 815.37C897.406 825.614 901.934 838.874 901.216 852.378C901.216 856.267 901.152 859.184 900.957 861.193ZM878.726 848.814C878.726 828.851 870.084 818.87 852.8 818.87C848.678 818.675 844.57 819.468 840.816 821.182C837.062 822.895 833.771 825.48 831.217 828.721C825.214 836.711 822.189 846.545 822.662 856.527L878.726 848.814Z" fill="#1068B0"/>
</svg>
